SVG_Azure_All/Virtual Machine Redeploy.svg

<?xml version="1.0" encoding="UTF-8" standalone="no"?>
<!-- Generated by Microsoft Visio, SVG Export Virtual Machine Redeploy.svg Page-1 -->

<svg
   xmlns:dc="http://purl.org/dc/elements/1.1/"
   xmlns:cc="http://creativecommons.org/ns#"
   xmlns:rdf="http://www.w3.org/1999/02/22-rdf-syntax-ns#"
   xmlns:svg="http://www.w3.org/2000/svg"
   xmlns="http://www.w3.org/2000/svg"
   xmlns:sodipodi="http://sodipodi.sourceforge.net/DTD/sodipodi-0.dtd"
   xmlns:inkscape="http://www.inkscape.org/namespaces/inkscape"
   width="0.78746885in"
   height="0.78731954in"
   viewBox="0 0 56.697825 56.687295"
   xml:space="preserve"
   class="st5"
   version="1.1"
   id="svg34"
   sodipodi:docname="Virtual Machine Redeploy.svg"
   style="font-size:12px;overflow:visible;color-interpolation-filters:sRGB;fill:none;fill-rule:evenodd;stroke-linecap:square;stroke-miterlimit:3"
   inkscape:version="0.92.5 (2060ec1f9f, 2020-04-08)"><metadata
   id="metadata40"><rdf:RDF><cc:Work
       rdf:about=""><dc:format>image/svg+xml</dc:format><dc:type
         rdf:resource="http://purl.org/dc/dcmitype/StillImage" /></cc:Work></rdf:RDF></metadata><defs
   id="defs38" /><sodipodi:namedview
   pagecolor="#ffffff"
   bordercolor="#666666"
   borderopacity="1"
   objecttolerance="10"
   gridtolerance="10"
   guidetolerance="10"
   inkscape:pageopacity="0"
   inkscape:pageshadow="2"
   inkscape:window-width="640"
   inkscape:window-height="480"
   id="namedview36"
   showgrid="false"
   inkscape:zoom="1.7193066"
   inkscape:cx="37.800334"
   inkscape:cy="23.271608"
   inkscape:window-x="0"
   inkscape:window-y="0"
   inkscape:window-maximized="0"
   inkscape:current-layer="svg34" />
	<style
   type="text/css"
   id="style2">
	<![CDATA[
		.st1 {fill:#3999c6;stroke:none;stroke-linecap:butt;stroke-width:12.24}
		.st2 {fill:#0072c6;fill-opacity:0.6;stroke:none;stroke-linecap:butt;stroke-width:12.24}
		.st3 {fill:#7a7a7a;stroke:none;stroke-linecap:butt;stroke-width:12.24}
		.st4 {fill:#a0a1a2;stroke:none;stroke-linecap:butt;stroke-width:12.24}
		.st5 {fill:none;fill-rule:evenodd;font-size:12px;overflow:visible;stroke-linecap:square;stroke-miterlimit:3}
	]]>
	</style>

	<g
   id="g32"
   transform="translate(-12.236213,-12.241)">
		<title
   id="title4">Page-1</title>
		<g
   id="group401-1"
   transform="translate(12.24,-34.0157)">
			<title
   id="title6">Virtual Machine Redeploy</title>
			<g
   id="group402-2">
				<title
   id="title8">Sheet.402</title>
				<g
   id="shape403-3">
					<title
   id="title10">Sheet.403</title>
					<path
   d="M 48.48,62.58 8.81,102.24 a 2.4046,2.40465 0 0 1 -3.4,0 L 0.7,97.54 a 2.4046,2.40465 0 0 1 0,-3.4 L 40.37,54.47 a 2.4046,2.40465 0 0 1 3.4,0 l 4.71,4.71 a 2.40234,2.40238 0 0 1 0,3.4 z"
   class="st1"
   id="path12"
   inkscape:connector-curvature="0"
   style="fill:#3999c6;stroke:none;stroke-width:12.23999977;stroke-linecap:butt" />
				</g>
				<g
   id="shape404-5"
   transform="translate(22.2489,-22.2482)">
					<title
   id="title15">Sheet.404</title>
					<path
   d="m 0,94.84 8.65,-8.65 8.11,8.11 -8.65,8.65 z"
   class="st2"
   id="path17"
   inkscape:connector-curvature="0"
   style="fill:#0072c6;fill-opacity:0.6;stroke:none;stroke-width:12.23999977;stroke-linecap:butt" />
				</g>
				<g
   id="shape405-7"
   transform="translate(17.2141,-17.2145)">
					<title
   id="title20">Sheet.405</title>
					<path
   d="M 15.44,64.1 38.85,87.51 23.41,102.95 0,79.54 Z"
   class="st3"
   id="path22"
   inkscape:connector-curvature="0"
   style="fill:#7a7a7a;stroke:none;stroke-width:12.23999977;stroke-linecap:butt" />
				</g>
				<g
   id="shape406-9"
   transform="translate(16.5841,-16.5833)">
					<title
   id="title25">Sheet.406</title>
					<path
   d="M 0.63,78.91 0,73.31 10.47,62.84 l 5.6,0.63 z m 38.85,7.97 0.63,5.6 -10.47,10.47 -5.6,-0.63 z"
   class="st4"
   id="path27"
   inkscape:connector-curvature="0"
   style="fill:#a0a1a2;stroke:none;stroke-width:12.23999977;stroke-linecap:butt" />
				</g>
			</g>
		</g>
	</g>
</svg>

<?xml version="1.0" encoding="UTF-8" standalone="no"?>
<!DOCTYPE svg PUBLIC "-//W3C//DTD SVG 1.1//EN" "http://www.w3.org/Graphics/SVG/1.1/DTD/svg11.dtd">
<!-- Generated by Microsoft Visio, SVG Export Virtual Machine Redeploy.svg Page-1 -->
<svg xmlns="http://www.w3.org/2000/svg" xmlns:xlink="http://www.w3.org/1999/xlink" xmlns:ev="http://www.w3.org/2001/xml-events"
		width="1.1274in" height="1.42984in" viewBox="0 0 81.1729 102.949" xml:space="preserve" color-interpolation-filters="sRGB"
		class="st5">
	<style type="text/css">
	<![CDATA[
		.st1 {fill:#3999c6;stroke:none;stroke-linecap:butt;stroke-width:12.24}
		.st2 {fill:#0072c6;fill-opacity:0.6;stroke:none;stroke-linecap:butt;stroke-width:12.24}
		.st3 {fill:#7a7a7a;stroke:none;stroke-linecap:butt;stroke-width:12.24}
		.st4 {fill:#a0a1a2;stroke:none;stroke-linecap:butt;stroke-width:12.24}
		.st5 {fill:none;fill-rule:evenodd;font-size:12px;overflow:visible;stroke-linecap:square;stroke-miterlimit:3}
	]]>
	</style>

	<g>
		<title>Page-1</title>
		<g id="group401-1" transform="translate(12.24,-34.0157)">
			<title>Virtual Machine Redeploy</title>
			<g id="group402-2">
				<title>Sheet.402</title>
				<g id="shape403-3">
					<title>Sheet.403</title>
					<path d="M48.48 62.58 L8.81 102.24 A2.4046 2.40465 0 0 1 5.41 102.24 L0.7 97.54 A2.4046 2.40465 0 0 1 0.7 94.14
								 L40.37 54.47 A2.4046 2.40465 0 0 1 43.77 54.47 L48.48 59.18 A2.40234 2.40238 0 0 1 48.48 62.58 Z"
							class="st1"/>
				</g>
				<g id="shape404-5" transform="translate(22.2489,-22.2482)">
					<title>Sheet.404</title>
					<path d="M0 94.84 L8.65 86.19 L16.76 94.3 L8.11 102.95 L0 94.84 Z" class="st2"/>
				</g>
				<g id="shape405-7" transform="translate(17.2141,-17.2145)">
					<title>Sheet.405</title>
					<path d="M15.44 64.1 L38.85 87.51 L23.41 102.95 L0 79.54 L15.44 64.1 Z" class="st3"/>
				</g>
				<g id="shape406-9" transform="translate(16.5841,-16.5833)">
					<title>Sheet.406</title>
					<path d="M0.63 78.91 L0 73.31 L10.47 62.84 L16.07 63.47 L0.63 78.91 ZM39.48 86.88 L40.11 92.48 L29.64 102.95
								 L24.04 102.32 L39.48 86.88 Z" class="st4"/>
				</g>
			</g>
		</g>
	</g>
</svg>
